X: 40337
T: Tom Busby's
R: jig
M: 6/8
K: Edorian
|:Bee B2A|Bee BAF|Bee Bee|BAF AFD|
Bee B2A|Bee def|gfe dBG|ABG FED:|
|:ABA d2d|BAB dBG|ABA dcd|BAF AFD|
ABA d2d|BAB def|gfe dBG|ABG FED:|

